X: 25536
T: Marian's Trip To Collooney
R: jig
M: 6/8
K: Adorian
|:DEG AGA|EDC cdc|DEG AGA|GED ~G3|
DEG AGA|EDC cde|~d3 cdc|1 AGA c3:|2 AGA c2d||
|:e2a aga|ecd ~e3|e2a aga|edc AGG|
e2a aga|ecd ~e3|dcA cAG|cEG ~A3:|

